!!!COM: Haydn, Franz Joseph
!!!OTL: String Quartet in C Major
!!!OPS: Opus 64
!!!ONM: No. 1
!!!OMD: Finale: Presto
!!!OMV: 4
!!!SCT: H III:65
!!!SCA: Thematisch-bibliographisches Werkevererzeichnis (A. van Hoboken)
!!!YOR: Dover Edition; reprint of Eulenburg Edition
!!!ENC: Walter Hewlett
!!!CDT: 1732/3/31/-1809/5/31/
!!!CNT: Oesterreich
!!!YEC: Copyright (c) 1994, 2000 Center for Computer Assisted Research in the Humanities
!!!YEM: Rights to all derivative editions reserved.
!!!YEM: Refer to licensing agreement for further details.
!!!YEN: United States of America
**kern	**kern	**kern	**kern	**dynam
*I:Violoncello	*I:Viola	*I:Violino II	*I:Violino I	*I:Violino I
*>[A,A,B]	*>[A,A,B]	*>[A,A,B]	*>[A,A,B]	*
*>A	*>A	*>A	*>A	*
*clefF4	*clefC3	*clefG2	*clefG2	*
*k[]	*k[]	*k[]	*k[]	*
*C:	*C:	*C:	*C:	*
*M6/8	*M6/8	*M6/8	*M6/8	*
! Presto	! Presto	! Presto	! Presto	!
8r	8c\	8e/	8cc'\	p
2ryy	2ryy	2ryy	2ryy	.
8ryy	8ryy	8ryy	8ryy	.
=1	=1	=1	=1	=1
2.r	8c\	8e/	8cc'\L	.
.	8r	8r	8r	.
.	8d\	8f/	8cc'\J	.
.	8e\	8g/	8cc'\L	.
.	8r	8r	8r	.
.	16f\LL	16a/LL	16cc'\L	.
.	16f\JJ	16a/JJ	16cc'\JJ	.
=2	=2	=2	=2	=2
4r	8e\L	8g/L	8cc'\L	.
.	8d\	8f/	8b'\	.
8r	8c\J	8e/J	8a'\J	.
4r	8B/	8d/	8g'/L	.
.	8r	8r	8r	.
8GG/	8B/	8d/	8f'/J	.
=3	=3	=3	=3	=3
4GG/	4B/	4d/	(4f/	.
8AA/	8c\	8c/	8e/)	.
4.FF/	8A/L	4.A/	(8d/L	.
.	8D/	.	8f/	.
.	8F/J	.	8a/J)	.
=4	=4	=4	=4	=4
[4.GG/	4.E/	8G/	(4.c/	.
.	.	8r	.	.
.	.	8r	.	.
8GG/]	8D/	4r	8B/)	.
8r	8r	.	8r	.
8r	8c\	8e/	8cc'\	.
=5	=5	=5	=5	=5
2.r	8c\	8e/	8cc'\L	.
.	8r	8r	8r	.
.	8d\	8f/	8cc'\J	.
.	8e\	8g/	8cc'\L	.
.	8r	8r	8r	.
.	16f\LL	16a/LL	16cc'\L	.
.	16f\JJ	16a/JJ	16cc'\JJ	.
=6	=6	=6	=6	=6
4r	8e\L	8g/L	8cc'\L	.
.	8d\	8f/	8b'\	.
8r	8c\J	8e/J	8a'\J	.
4r	8B/	8d/	8g'/L	.
.	8r	8r	8r	.
8GG/	8B/	8d/	8f'/J	.
=7	=7	=7	=7	=7
4GG/	4B/	4d/	(4f/	.
8AA/	8c\	8c/	8e/)	.
4.FF/	8A/L	4.c/	(8d/L	.
.	8D/	.	8f/	.
.	8F/J	.	8a/J)	.
=8	=8	=8	=8	=8
4.GG/	4E/	4c/	(4c/	.
.	8F/	8B/	16e/LL	.
.	.	.	16d/JJ)	.
8CC/L	8E\L	8c/L	8c/	.
8C/	8e\	8e/	8r	.
8C/J	8e\J	8e/J	(16ff#\LL	f
.	.	.	16gg\JJ)	.
=9	=9	=9	=9	=9
8CC/L	2.d\ 2.B\	2.f/ 2.G/	(16aa\LL	.
.	.	.	16gg\	.
8C/	.	.	16ffn\)	.
.	.	.	16ee'\	.
8CC/J	.	.	16dd'\	.
.	.	.	16cc'\JJ	.
8C/L	.	.	(16b/LL	.
.	.	.	16a/	.
8CC/	.	.	16g/)	.
.	.	.	16f'/	.
8CC/J	.	.	16e'/	.
.	.	.	16d'/JJ	.
=10	=10	=10	=10	=10
8CC/L	8e\ 8c\	8e/ 8G/	8c'/L	.
8C/	8r	8r	8e'/	.
8CC/J	8c\	8e/ 8G/	8g'/J	.
8C/L	8c\	8e/ 8G/	8cc'\L	.
8CC/	8r	8r	8ee'\	.
8CC/J	8e\	8e/ 8G/	(16ff#\L	.
.	.	.	16gg\JJ)	.
=11	=11	=11	=11	=11
8CC/L	2.d\ 2.B\	2.f/ 2.G/	(16aa\LL	.
.	.	.	16gg\	.
8C/	.	.	16ffn\)	.
.	.	.	16ee'\	.
8CC/J	.	.	16dd'\	.
.	.	.	16cc'\JJ	.
8C/L	.	.	(16b/LL	.
.	.	.	16a/	.
8CC/	.	.	16g/)	.
.	.	.	16f'/	.
8CC/J	.	.	16e'/	.
.	.	.	16d'/JJ	.
=12	=12	=12	=12	=12
8CC/L	8e\ 8c\	8e/ 8G/	8c'/L	.
8C/	8r	8r	8e'/	.
8CC/J	8c\	8e/ 8G/	8g'/J	.
8C/L	8c\	8e/ 8G/	8cc'\L	.
8CC/	8r	8r	8ee'\	.
8CC/J	8r	8e/	(16gg#\L	.
.	.	.	16aa\JJ)	.
=13	=13	=13	=13	=13
8CC/L	4.e\	4.a/ 4.e/	(16bb\LL	.
.	.	.	16aa\	.
8C/	.	.	16ccc\)	.
.	.	.	16bb'\	.
8CC/J	.	.	16aa'\	.
.	.	.	16ggn'\JJ	.
8C/L	4.f#\	4.a/ 4.d/	(16ff#\LL	.
.	.	.	16ee\	.
8CC/	.	.	16dd\)	.
.	.	.	16cc'\	.
8C/J	.	.	16b'\	.
.	.	.	16a'\JJ	.
=14	=14	=14	=14	=14
4BB/	4g\	4b/ 4g/	8g'\L	.
.	.	.	8b'\	.
8r	8r	8r	8dd'\J	.
4r	4r	4r	8gg'\L	.
.	.	.	8bb'\	.
8r	16f#\LL	16a/LL	8ddd'\J	.
.	16g\JJ	16b/JJ	.	.
=15	=15	=15	=15	=15
4r	16a\LL	16cc\LL	8ddd'\L	.
.	16g\	16b\	.	.
.	16b\	16dd\	8r	.
.	16a\	16cc\	.	.
8r	16g\	16b\	8ddd'\J	.
.	16f#\JJ	16a\JJ	.	.
4r	16e/LL	16g/LL	8ddd'\	.
.	16d/	16f#/	.	.
.	16c/	16e/	8r	.
.	16B/	16d/	.	.
8GG/	16A/	16c/	16ddd'\LL	.
.	16G/JJ	16B/JJ	16ddd'\JJ	.
=16	=16	=16	=16	=16
16E\LL	4.e\	4.g/	(8ddd\L	.
16F#\	.	.	.	.
16G\	.	.	8ccc\)	.
16A\	.	.	.	.
16B\	.	.	8ccc'\J	.
16c\JJ	.	.	.	.
8D\L	8d\	4.f#/	(8ccc\L	.
8c#\	8r	.	8aa#\	.
8d\J	8r	.	8bb\J)	.
=17	=17	=17	=17	=17
16C\LL	4.c\	4.e/	(8bb\L	.
16D\	.	.	.	.
16E\	.	.	8aan\)	.
16F#\	.	.	.	.
16G\	.	.	8aa'\J	.
16A\JJ	.	.	.	.
8BB\L	8B/	4d/	(8aa\L	.
8A#\	8r	.	8ff#\	.
8B\J	8r	16dd\LL	8gg\J)	.
.	.	16b\JJ	.	.
=18	=18	=18	=18	=18
[4.c\	8e\L	[4.a/	(16gg\LL	.
.	.	.	16ff#\)	.
.	8e\	.	(16aa\	.
.	.	.	16gg\)	.
.	8e\J	.	(16bb\	.
.	.	.	16aa\JJ)	.
8c\L]	16e\LL	8a/L]	8gg'\L	.
.	16d#\	.	.	.
8c\	16f#\	8a/	8gg'\	.
.	16e\	.	.	.
8c\J	16g\	8a/J	8gg'\J	.
.	16f#\JJ	.	.	.
=19	=19	=19	=19	=19
[4.c#\	8e\L	[4.a/	(16gg\LL	.
.	.	.	16ff#\)	.
.	8e\	.	(16aa\	.
.	.	.	16gg\)	.
.	8e\J	.	(16bb\	.
.	.	.	16aa\JJ)	.
8c#\L]	16e\LL	8a/L]	8gg'\L	.
.	16d#\	.	.	.
8c#\	16f#\	8a/	8gg'\	.
.	16e\	.	.	.
8c#\J	16g\	8a/J	8gg'\J	.
.	16f#\JJ	.	.	.
=20	=20	=20	=20	=20
[4.c#\	8e\L	[4.b-\	(16gg\LL	.
.	.	.	16ff#\)	.
.	8e\	.	(16aa\	.
.	.	.	16gg\)	.
.	8e\J	.	(16bb-\	.
.	.	.	16aa\JJ)	.
8c#\L]	16e\LL	8b-\L]	8gg'\L	.
.	16d#\	.	.	.
8c#\	16f#\	8b-\	8gg'\	.
.	16e\	.	.	.
8c#\J	16g\	8b-\J	8gg'\J	.
.	16e\JJ	.	.	.
=21	=21	=21	=21	=21
4.d\	16f#\LL	16a\LL	8ff#'\L	.
.	16g\	16b\	.	.
.	16a\	16cc\	8ff#'\	.
.	16g#\	16b\	.	.
.	16a\	16cc\	8ff#'\J	.
.	16g#\JJ	16b\JJ	.	.
16d\LL	8a\L	8cc\L	8ff#'\L	.
16e-\	.	.	.	.
16d\	8a\	8cc\	8ff#'\	.
16e-\	.	.	.	.
16d\	8a\J	8cc\J	8ff#'\J	.
16e-\JJ	.	.	.	.
=22	=22	=22	=22	=22
8d\	8a\	8cc\	8ff#\	.
8r	8r	8r	8r	.
8r	8r	8r	8r	.
4r	4r	4r	4r	.
8GG/	8B/	8d/	(16ddd\LL	.
.	.	.	16ccc\JJ)	.
=23	=23	=23	=23	=23
8GG/	8B/	8d/	(16bbn\LL	.
.	.	.	16aa\	.
8r	8r	8r	16gg\)	.
.	.	.	16ff#'\	.
8GG/	8B/	8d/	16een'\	.
.	.	.	16dd'\JJ	.
8GG/	8B/	8d/	(16cc/LL	.
.	.	.	16b/	.
8r	8r	8r	16a/)	.
.	.	.	16g'/	.
16GG/LL	16B/LL	16d/LL	16f#'/	.
16GG/JJ	16B/JJ	16d/JJ	16e'/JJ	.
=24	=24	=24	=24	=24
16AA/LL	16c/LL	8d/	8d'/L	.
16BB/	16d/	.	.	.
16AA/	16c/	8r	8f#'/	.
16GG/	16B/	.	.	.
16FF#/	16A/	8d/	8a'/J	.
16EE/JJ	16G/JJ	.	.	.
8DD/	8F#/	16d/LL	8cc'\	.
.	.	16f#/	.	.
8r	8r	16a/	8r	.
.	.	16b/	.	.
8D\	8d\	16a/	(16ccc\LL	.
.	.	16g/JJ	16bb\JJ)	.
=25	=25	=25	=25	=25
8D\	8d\	8f#/	(16aa\LL	.
.	.	.	16gg\	.
8r	8r	8r	16ff#\)	.
.	.	.	16ee'\	.
8D\	8c\	8f#/ 8A/	16dd'\	.
.	.	.	16cc'\JJ	.
8D\	8c\	8f#/ 8A/	(16b/LL	.
.	.	.	16a/	.
8r	8r	8r	16g/)	.
.	.	.	16f#'/	.
16D\LL	16c/LL	16f#/ 16A/LL	16e'/	.
16D\JJ	16A/JJ	16f#/ 16A/JJ	16d'/JJ	.
=26	=26	=26	=26	=26
4E\	4G/	8g/ 8G/	(8c/L	.
.	.	8r	8B/)	.
8r	8r	8r	8f#'/J	.
4r	4r	4r	4g/	.
8r	8r	8r	16ff#'\LL	.
.	.	.	16gg'\JJ	.
=27	=27	=27	=27	=27
2.r	8b\L	8dd\L	(16aa\LL	.
.	.	.	16gg\)	.
.	8b\J	8dd\J	(16bb\	.
.	.	.	16gg\)	.
.	8r	8r	16dd#'\	.
.	.	.	16ee'\JJ	.
.	8g\L	8b\L	(16ff#\LL	.
.	.	.	16ee\)	.
.	8g\J	8b\J	(16gg\	.
.	.	.	16ee\)	.
.	8r	8r	16b'\	.
.	.	.	16cc'\JJ	.
=28	=28	=28	=28	=28
4r	8e\L	8g/L	(16ddn\LL	.
.	.	.	16cc\)	.
.	8e\J	8g/J	(16ee\	.
.	.	.	16cc\)	.
8r	8r	8r	16g#'\	.
.	.	.	16a'\JJ	.
8G#\L	4r	4r	(16cc\LL	.
.	.	.	16b\)	.
8A\	.	.	(16dd\	.
.	.	.	16cc\)	.
8B\J	8r	8r	(16ee\	.
.	.	.	16dd\JJ)	.
=29	=29	=29	=29	=29
8c\	4r	4r	(16ffn\LL	.
.	.	.	16ee\	.
8r	.	.	16dd\	.
.	.	.	16cc\	.
8r	8r	8r	16b\	.
.	.	.	16a\JJ)	.
4C/	8E/L	4A/	(16ff\LL	.
.	.	.	16ee\	.
.	8G#/	.	16dd\	.
.	.	.	16cc\	.
8r	8A/J	8r	16b\	.
.	.	.	16a\JJ)	.
=30	=30	=30	=30	=30
4.D\	8B/L	4d/	(4g/	.
.	8G/	.	.	.
.	8F#/J	8c/	16b/LL	.
.	.	.	16a/JJ)	.
8GG/	8G/	8B/	8g/	.
8r	8r	8r	8r	.
8r	8r	8r	8d'/	mf
=31	=31	=31	=31	=31
!	!	!	! (32eP/LLL	!
!	!	!	! 32dP/	!
!	!	!	! 32c#P/JJJ	!
4BB/	8r	2.r	8dp'/L)	.
.	8B/L	.	8g'/	.
8r	8G/J	.	8b'/J	.
!	!	!	! (32f#P/LLL	!
!	!	!	! 32eP/	!
!	!	!	! 32d#P/JJJ	!
4C/	8r	.	8ep'/L)	.
.	8c/L	.	8a'/	.
8r	8A/J	.	8cc'/J	.
=32	=32	=32	=32	=32
!	!	!	! (32gP/LLL	!
!	!	!	! 32f#P/	!
!	!	!	! 32eP/JJJ	!
4D\	8r	4r	8f#p'/L)	.
.	8f#\L	.	8a'/	.
8r	8cc\J	8r	8dd'/J	.
4GG/	8b\	4r	(16ee\LL	.
.	.	.	16dd\)	.
.	8r	.	(16cc\	.
.	.	.	16b\)	.
8r	8r	8d/	(16a\	.
.	.	.	16g\JJ)	.
=33	=33	=33	=33	=33
!	!	!	! (32aP/LLL	!
!	!	!	! 32gP/	!
!	!	!	! 32f#P/JJJ	!
4C/	2.r	8e\L	8gp'\L)	.
.	.	8ee\	8gg'\	.
8r	.	8ee\J	8gg'\J	.
4r	.	8ee\L	(16aa\LL	.
.	.	.	16gg\)	.
.	.	16dd\L	(16ff#\	.
.	.	16cc\	16ee\	.
8r	.	16b\	16dd\	.
.	.	16a\JJ	16cc\JJ)	.
=34	=34	=34	=34	=34
8D\L	8r	8.g/L	(8.b\L	.
8D\	8d\L	.	.	.
.	.	16a/k	16cc\k)	.
8D\J	8c\J	8f#/J	8a'\J	.
8GG/L	8B\L	8g/	8g'/	.
8G/J	8b\J	8r	8r	.
8r	8r	8d/	8r	.
=35	=35	=35	=35	=35
4BB/	8r	8d/L	8r	.
.	8B/L	8g/	8ddd'\L	p
8r	8G/J	8b/J	8ddd'\J	.
4C/	8r	8e/L	(8ddd\L	.
.	8c/L	8a/	8ccc\)	.
8r	8A/J	8cc/J	8ccc'\J	.
=36	=36	=36	=36	=36
4D\	8r	8f#/L	(16ddd\LL	.
.	.	.	16ccc\)	.
.	8f#\L	8a/	(16bb\	.
.	.	.	16aa\	.
8r	8cc\J	8dd/J	16gg\	.
.	.	.	16ff#\JJ)	.
4GG/	8b\	8dd\L	8gg'\	.
.	8r	16cc\L	8r	.
.	.	16b\	.	.
8r	8r	16a\	8g'/	.
.	.	16g\JJ	.	.
=37	=37	=37	=37	=37
!	!	!	! (32aP/LLL	!
!	!	!	! 32gP/	!
!	!	!	! 32f#P/JJJ	!
4C/	2.r	8e\L	8gp'\L)	.
.	.	8ee\	8gg'\	.
8r	.	8ee\J	8gg'\J	.
4c\	.	8ee\L	(16aa\LL	.
.	.	.	16gg\)	.
.	.	16dd\L	(16ff#\	.
.	.	16cc\	16ee\	.
8r	.	16b\	16dd\	.
.	.	16a\JJ	16cc\JJ)	.
=38	=38	=38	=38	=38
4d\	8r	8.g/L	(8.b\L	.
.	8d\L	.	.	.
.	.	16a/k	16cc\k)	.
8D\	8c\J	8f#/J	8a'\J	.
8G/L	8B/	8g/	8g'/	.
8GG/J	8r	8r	8r	.
8r	8g\	8b\	8gg'\	.
=39	=39	=39	=39	=39
8r	8a\	8cc\	8gg'\L	.
8GG/	8r	8r	8r	.
8r	8a#\	8cc#\	8gg'\J	.
8r	8b\	8dd\	8gg'\L	.
8GG/	8r	8r	8r	.
8r	8cc#\	16ee\LL	16gg'\L	.
.	.	16ee\JJ	16gg'\JJ	.
=40	=40	=40	=40	=40
16GG/LL	8dd\L	8ff\L	8gg'\L	.
16BB/	.	.	.	.
16D/	8dd\	8ff\	8gg'\	.
16C/	.	.	.	.
16BB/	8dd\J	8ff\J	8gg'\J	.
16AA/JJ	.	.	.	.
8GG/	8dd\	8ff\	8gg'\	.
8r	8r	8r	8r	.
=:|!	=:|!	=:|!	=:|!	=:|!
*>B	*>B	*>B	*>B	*
8r	8b\	8ff\ 8dd\	8gg'\	f
2ryy	2ryy	2ryy	2ryy	.
8ryy	8ryy	8ryy	8ryy	.
=41	=41	=41	=41	=41
2.r	8b\L	8ff\ 8dd\L	(16gg\LL	.
.	.	.	16bb\	.
.	8b\	8ff\ 8dd\	16ddd\)	.
.	.	.	16ccc'\	.
.	8b\J	8ff\ 8dd\J	16bb'\	.
.	.	.	16aa'\JJ	.
.	8b\	8ff\ 8dd\	8gg'\	.
.	8r	8r	8r	.
.	8r	8r	8r	.
=42	=42	=42	=42	=42
4r	2.r	2.r	2.r	.
8r	.	.	.	.
4r	.	.	.	.
8AA-/	.	.	.	.
=43	=43	=43	=43	=43
8AA-/	4r	2.r	2.r	.
8r	.	.	.	.
8AA-/	8E-/	.	.	.
8AA-/	8E-/	.	.	.
8r	8r	.	.	.
16AA-/LL	8E-/	.	.	.
16AA-/JJ	.	.	.	.
=44	=44	=44	=44	=44
8AA-/L	8E-/	2.r	2.r	.
8GG/	8r	.	.	.
8AAn/J	16E-/LL	.	.	.
.	16E-/JJ	.	.	.
8BB-/	8E-/L	.	.	.
8r	8D/	.	.	.
16BB-/LL	8En/J	.	.	.
16BB-/JJ	.	.	.	.
=45	=45	=45	=45	=45
8BB-/L	8F/	4r	2.r	.
8AA/	8r	.	.	.
8BBn/J	16F/LL	8r	.	.
.	16F/JJ	.	.	.
8C/	8F/L	4r	.	.
8r	8E/	.	.	.
16C/LL	8F#/J	8d/	.	.
16C/JJ	.	.	.	.
=46	=46	=46	=46	=46
8C/L	8G/	8d/	2.r	.
8BB-/	8r	8r	.	.
8AA/J	16c\LL	8d/	.	.
.	16c\JJ	.	.	.
4GG/	8c/L	8d/	.	.
.	8B-/	8r	.	.
8FF/	8A/J	16d/LL	.	.
.	.	16d/JJ	.	.
=47	=47	=47	=47	=47
4EE/	4G/	8d/L	8r	.
.	.	8c#/	8r	.
8DD/	8F/	8d/J	8a'/	.
4CC#/	8E/L	8e/	8a'/L	.
.	8A/	8r	8r	.
8C#/	8G/J	16e/LL	8a'/J	.
.	.	16e/JJ	.	.
=48	=48	=48	=48	=48
4D\	8G/L	8e/L	8a/L	.
.	8F/	8d/	8r	.
8r	8e/J	8c/J	16a'/L	.
.	.	.	16a'/JJ	.
4r	4d\	4B/	(8a/L	.
.	.	.	8g#/)	.
16f\LL	8c\	8A/	8a'/J	.
16f\JJ	.	.	.	.
=49	=49	=49	=49	=49
8f\L	4.B/	4.G#/	8b'\L	.
8e\	.	.	8r	.
8d\J	.	.	16b'\L	.
.	.	.	16b'\JJ	.
8c\L	4c\	4A/	(8b/L	.
8A\	.	.	8a/)	.
16G\L	16B/LL	8r	8b'/J	.
16F\JJ	16A/JJ	.	.	.
=50	=50	=50	=50	=50
8E\L	8G/L	4r	(8cc\L	.
8D\	8F/	.	8b\)	.
8C\J	8E/J	16cc\LL	8cc'\J	.
.	.	16cc\JJ	.	.
4GG/	8D/	8cc\L	8dd'\L	.
.	8r	8b\	8r	.
8r	16G/LL	8a\J	16dd'\L	.
.	16A/JJ	.	16dd'\JJ	.
=51	=51	=51	=51	=51
4r	8B/L	2.g/	(8dd\L	<
.	8A/	.	8cc\)	.
8r	8B/J	.	8dd'\J	.
4r	8c/L	.	(8ee\L	.
.	8B/	.	8dd\)	.
16C/LL	8B-/J	.	8ee'\J	f]
16C/JJ	.	.	.	.
=52	=52	=52	=52	=52
16F\LL	16A/LL	4c/	8ff'\L	.
16G\	16B-/	.	.	.
16A\	16c/	.	8r	.
16F\	16A/	.	.	.
16G\	16B-/	8r	8ff'\J	.
16A\JJ	16c/JJ	.	.	.
16B-\LL	16d\LL	4r	8ff'\L	.
16A\	16c\	.	.	.
16B-\	16d\	.	8r	.
16G\	16B-\	.	.	.
16A\	16c\	8gg\	16ff'\L	.
16Bn\JJ	16d\JJ	.	16ff'\JJ	.
=53	=53	=53	=53	=53
16c\LL	4G/	8gg\	8ff'\L	.
16B\	.	.	.	.
16c\	.	8r	8ee'\	.
16C\	.	.	.	.
16c\	8r	8gg\	8dd'\J	.
16d\JJ	.	.	.	.
16e\LL	8r	8gg\	8cc'\L	.
16d\	.	.	.	.
16e\	8c\L	8r	8r	.
16d\	.	.	.	.
16c#\	8e\J	16gg\LL	8aa'\J	.
16A\JJ	.	16gg\JJ	.	.
=54	=54	=54	=54	=54
16d\LL	8d\	8gg\L	8aa'\L	.
16c#\	.	.	.	.
16d\	16r	8ff\	8r	.
16D\	16f\LL	.	.	.
16E\	16g\	8ee\J	16aa'\L	.
16F\JJ	16a\JJ	.	16aa'\JJ	.
16G\LL	16b-\LL	8dd\	8aa'\L	.
16F#\	16a\	.	.	.
16G\	16b-\	8r	8gg'\	.
16GG\	16b-\	.	.	.
16AA\	16cc\	16bb-\LL	8ff'\J	.
16BB-\JJ	16dd\JJ	16bb-\JJ	.	.
=55	=55	=55	=55	=55
16C/LL	8g\L	8bb-\L	8ee'\L	.
16BB/	.	.	.	.
16C/	8a\	8aa\	8r	.
16CC/	.	.	.	.
16E/	8b-\J	8gg\J	16ccc'\L	.
16C/JJ	.	.	16ccc'\JJ	.
16F\LL	4a\	8aa\L	8ccc'\L	.
16E\	.	.	.	.
16F\	.	8ff\	8aa'\	.
16FF\	.	.	.	.
16GG\	8bn\	16ee\L	(16gg\L	.
16G\JJ	.	16dd\JJ	16ff\JJ)	.
=56	=56	=56	=56	=56
8C/	8cc\	8ee/L	8ee'\L	.
8r	8r	16d#/L	8gg'\	.
.	.	16e/	.	.
8c\	8e\	16g/	8gg'\J	.
.	.	16e/JJ	.	.
8c\	8e\	8r	8r	.
8r	8r	16d#/LL	8gg'\L	.
.	.	16e/	.	.
16c\LL	16e\LL	16g/	8gg'\J	.
16c\JJ	16e\JJ	16e/JJ	.	.
=57	=57	=57	=57	=57
8c\L	8e\L	2.r	8r	.
8B\	8d\	.	16gg'\LL	.
.	.	.	16gg'\J	.
8A\J	8c\J	.	8gg'\J	.
8G\	8B/	.	8gg'\L	.
8r	8r	.	8ff'\	.
8d\	8f\	.	8ee'\J	.
=58	=58	=58	=58	=58
8d\	8f\	8r	8dd'\L	.
8r	8r	16e/LL	8aa'\	.
.	.	16f/	.	.
8d\	8f\	16a/	8aa'\J	.
.	.	16f/JJ	.	.
8d\	8f\	8r	8r	.
8r	8r	16e/LL	8aa'\L	.
.	.	16f/	.	.
16d\LL	16f\LL	16a/	8aa'\J	.
16d\JJ	16f\JJ	16f/JJ	.	.
=59	=59	=59	=59	=59
8d\L	8f\L	4r	8r	.
8c\	8e\	.	16aa'\LL	.
.	.	.	16aa'\J	.
8B\J	8d\J	8r	8aa'\J	.
8A\	8c\	4r	8aa'\L	.
8r	8r	.	8gg'\	.
8r	8a\	8cc\	8ff'\J	.
=60	=60	=60	=60	=60
8r	8a\	8cc\	8ee'\L	.
8F\L	8r	8r	8r	.
8F\J	8a\	8cc\	8ee'\J	.
8r	8a\	8cc\	8ee'\L	.
8F\L	8r	8r	8r	.
8F\J	16A/LL	16cc\LL	16ee'\L	.
.	16A/JJ	16cc\JJ	16ee'\JJ	.
=61	=61	=61	=61	=61
8r	16A/LL	8cc\L	8dd#'\L	.
.	16G#/	.	.	.
16F\LL	16A/	8b\	8dd#'\	.
16F\J	16B/	.	.	.
8F\J	16c/	8a\J	8dd#'\J	.
.	16A/JJ	.	.	.
4.E\	4B/	8g#/	8ee'\L	.
.	.	8r	8r	.
.	16A#/LL	8dd\	8ff'\J	.
.	16B/JJ	.	.	.
=62	=62	=62	=62	=62
[4.E\	16A#/LL	8dd\	8ff'\L	.
.	16B/	.	.	.
.	16d/	8r	8r	.
.	16B/	.	.	.
.	16A#/	8dd\	8ff'\J	.
.	16B/JJ	.	.	.
8E\]	16A#/LL	8dd\	8ff'\	.
.	16B/	.	.	.
8r	16d/	8r	8r	.
.	16B/JJ	.	.	.
8r	8r	8r	(16ee\LL	.
.	.	.	16ff\JJ)	.
=63	=63	=63	=63	=63
2.r	8b\ 8g#\	8dd\	(16ee\LL	.
.	.	.	16ff\)	.
.	8r	8r	(16bb\	.
.	.	.	16ff\	.
.	8b\ 8g#\	8dd\	16ee\	.
.	.	.	16ff\JJ)	.
.	8b\ 8g#\	8dd\	(16ee\LL	.
.	.	.	16ff\	.
.	8r	8r	16bb\	.
.	.	.	16ff\J)	.
.	16A#/LL	8dd\	8ff'\J	.
.	16B/JJ	.	.	.
=64	=64	=64	=64	=64
[4.E\	16A#/LL	8dd\	8ff'\L	.
.	16B/	.	.	.
.	16d/	8r	8r	.
.	16B/	.	.	.
.	16A#/	8dd\	8ff'\J	.
.	16B/JJ	.	.	.
8E\]	16A#/LL	8dd\	8ff'\	.
.	16B/	.	.	.
8r	16d/	8r	8r	.
.	16B/JJ	.	.	.
8r	8r	8r	(16dd#\LL	.
.	.	.	16ee\JJ)	.
=65	=65	=65	=65	=65
2.r	8bn\ 8g#\	8dd\	(16dd#\LL	.
.	.	.	16ee\)	.
.	8r	8r	(16dddn\	.
.	.	.	16ee\	.
.	8b\ 8g#\	8dd\	16dd#\	.
.	.	.	16ee\JJ)	.
.	8b\ 8g#\	8dd\	(16dd#\LL	.
.	.	.	16ee\)	.
.	8r	8r	(16dddn\	.
.	.	.	16ee\)	.
.	8r	16g#/LL	16gg#'\	.
.	.	16a/JJ	16aa'\JJ	.
=66	=66	=66	=66	=66
4r	4r	16g#/LL	(16gg#\LL	.
.	.	16a/	16aa\)	.
.	.	16cc/	(16ccc\	.
.	.	16a/	16aa\)	.
8r	8r	16e/	16ee'\	.
.	.	16f/JJ	16ff'\JJ	.
4r	4r	16e/LL	(16ee\LL	.
.	.	16f/	16ff\)	.
.	.	16a/	(16aa\	.
.	.	16f/	16ff\JJ)	.
16c#\LL	16c#\LL	16cc#/	16cc#'\LL	ff
16d\JJ	16d\JJ	16dd/JJ	16dd'\JJ	.
=67	=67	=67	=67	=67
16c#\LL	16c#\LL	16cc#\LL	(16cc#\LL	.
16d\	16d\	16dd\	16dd\)	.
16f\	16f\	16ff\	(16ff\	.
16d\	16d\	16dd\	16dd\)	.
16A#\	16A#\	16a#\	16a#'\	.
16B\JJ	16B\JJ	16b\JJ	16b'\JJ	.
16A#\LL	16A#/LL	16a#\LL	(16a#\LL	.
16B\	16B/	16b\	16b\)	.
16d\	16d/	16dd\	(16dd\	.
16B\	16B/	16b\	16b\)	.
16G#\	16G#/	16g#\	16g#'\	.
16An\JJ	16An/JJ	16an\JJ	16an'\JJ	.
=68	=68	=68	=68	=68
16G#\LL	16G#/LL	16g#/LL	(16g#/LL	.
16A\	16A/	16a/	16a/)	.
16c\	16c/	16cc/	(16cc/	.
16A\	16A/	16a/	16a/)	.
16E\	16e/	16e/	16e'/	.
16C\JJ	16c/JJ	16c/JJ	16c'/JJ	.
16F\LL	16f\LL	16f/LL	16f'/LL	.
16D\	16d\	16d/	16d'/	.
16E\	16e\	16e/	16e'/	.
16C\	16c\	16c/	16c'/	.
16D\	16d\	16d/	16d'/	.
16BB\JJ	16B\JJ	16B/JJ	16B'/JJ	.
=69	=69	=69	=69	=69
2.AA/	2.A/	2.A/	(2.A/	Z>
=70	=70	=70	=70	=70
8EE/	8C/	8G/	8B-'/L)	p]
8r	8r	8r	8r	.
8EE/	8C/	8G/	8B-'/J	.
8EE/	8C/	8G/	8B-'/L	.
8r	8r	8r	8r	.
16EE/LL	16C/LL	16G/LL	16B-'/L	.
16EE/JJ	16C/JJ	16G/JJ	16B-'/JJ	.
=71	=71	=71	=71	=71
4FF/	4C/	8G/L	(8B-/L	.
.	.	8A/	8A/	.
8EE/	8G/	8B-/J	8c#/J)	.
8FF/L	8A/L	8A/L	(8d/L	<
8EE/	8G/	8c#/	8e/	.
8DD/J	8F/J	8d/J	8f/J)	]
=72	=72	=72	=72	=72
[4.GG/	[4.G/	4.c/	(4.e/	>
8GG/]	8G/]	8B/	8d/)	]
8r	8r	8r	8r	.
8r	8c\	8e/	8ccn'\	p
=73	=73	=73	=73	=73
2.r	8c\	8e/	8cc'\L	.
.	8r	8r	8r	.
.	8d\	8f/	8cc'\J	.
.	8e\	8g/	8cc'\L	.
.	8r	8r	8r	.
.	16f\LL	16a/LL	16cc'\L	.
.	16f\JJ	16a/JJ	16cc'\JJ	.
=74	=74	=74	=74	=74
4r	8e\L	8g/L	8cc'\L	.
.	8d\	8f/	8b'\	.
8r	8c\J	8e/J	8a'\J	.
4r	8B/	8d/	8g'/L	.
.	8r	8r	8r	.
8GG/	8B/	8d/	8f'/J	.
=75	=75	=75	=75	=75
4GG/	4B/	4d/	(4f/	.
8AA/	8c\	8c/	8e/)	.
4.FF/	8A/L	4.A/	(8d/L	.
.	8D/	.	8f/	.
.	8F/J	.	8a/J)	.
=76	=76	=76	=76	=76
[4.GG/	4.E/	8G/	(4.c/	.
.	.	8r	.	.
.	.	8r	.	.
8GG/]	8D/	4r	8B/)	.
8r	8r	.	8r	.
8r	8c\	8e/	(16b\LL	.
.	.	.	16cc\JJ)	.
=77	=77	=77	=77	=77
2.r	8c\	8e/	(16b\LL	.
.	.	.	16cc\)	.
.	8r	8r	(16ee\	.
.	.	.	16cc\	.
.	8d\	8f/	16b\	.
.	.	.	16cc\JJ)	.
.	8e\	8g/	(16b\LL	.
.	.	.	16cc\)	.
.	8r	8r	(16ee\	.
.	.	.	16cc\	.
.	16f\LL	16a/LL	16b\	.
.	16f\JJ	16a/JJ	16cc\JJ)	.
=78	=78	=78	=78	=78
4r	8e\L	8g/L	(16dd\LL	.
.	.	.	16cc\)	.
.	8d\	8f/	(16cc\	.
.	.	.	16b\)	.
8r	8c\J	8e/J	(16b\	.
.	.	.	16a\JJ)	.
4r	8B/	8d/	(16a/LL	.
.	.	.	16g/)	.
.	8r	8r	(16f#/	.
.	.	.	16g/)	.
8GG/	8B/	8d/	(16e/	.
.	.	.	16fn/JJ)	.
=79	=79	=79	=79	=79
4GG/	4B/	4d/	(16e/LL	.
.	.	.	16f/)	.
.	.	.	(16a/	.
.	.	.	16f/)	.
8AA/	8c\	8c/	(16d#/	.
.	.	.	16e/JJ)	.
4.FF/	8A/L	4.c/	(16c#/LL	.
.	.	.	16dn/)	.
.	8D/	.	(16e/	.
.	.	.	16f/)	.
.	8F/J	.	(16g/	.
.	.	.	16a/JJ)	.
=80	=80	=80	=80	=80
4.GG/	4E/	4c/	(4cn/	.
.	8F/	8B/	16e/LL	.
.	.	.	16d/JJ)	.
8CC/L	8E\L	8c/L	8c/	.
8C/	8e\	8e/	8r	.
8C/J	8e\J	8e/J	(16ff#\LL	f
.	.	.	16gg\JJ)	.
=81	=81	=81	=81	=81
8CC/L	2.d\ 2.B\	2.f/ 2.G/	(16aa\LL	.
.	.	.	16gg\	.
8C/	.	.	16ffn\)	.
.	.	.	16ee'\	.
8CC/J	.	.	16dd'\	.
.	.	.	16cc'\JJ	.
8C/L	.	.	(16b/LL	.
.	.	.	16a/	.
8CC/	.	.	16g/)	.
.	.	.	16f'/	.
8CC/J	.	.	16e'/	.
.	.	.	16d'/JJ	.
=82	=82	=82	=82	=82
8CC/L	8e\ 8c\	8e/ 8G/	8c'/L	.
8C/	8r	8r	8e'/	.
8CC/J	8c\	8e/ 8G/	8g'/J	.
8C/L	8c\	8e/ 8G/	8cc'\L	.
8CC/	8r	8r	8ee'\	.
8CC/J	8e\	8e/ 8G/	(16ff#\L	.
.	.	.	16gg\JJ)	.
=83	=83	=83	=83	=83
8CC/L	2.d\ 2.B\	2.f/ 2.G/	(16aa\LL	.
.	.	.	16gg\	.
8C/	.	.	16ffn\)	.
.	.	.	16ee'\	.
8CC/J	.	.	16dd'\	.
.	.	.	16cc'\JJ	.
8C/L	.	.	(16b/LL	.
.	.	.	16a/	.
8CC/	.	.	16g/)	.
.	.	.	16f'/	.
8CC/J	.	.	16e'/	.
.	.	.	16d'/JJ	.
=84	=84	=84	=84	=84
8CC/L	8e\ 8c\	8e/ 8G/	8c'/L	.
8C/	8r	8r	8e'/	.
8CC/J	8e\	8e/ 8G/	8g'/J	.
8C/L	8e\	8e/ 8G/	8cc'\L	.
8CC/	8r	8r	8ee'\	.
8CC/J	8e\	8e/ 8B-/	(16gg\L	.
.	.	.	16aa\JJ)	.
=85	=85	=85	=85	=85
8CC/L	2.g\	2.en/ 2.B-/	(16bb-\LL	.
.	.	.	16aa\	.
8C/	.	.	16gg\)	.
.	.	.	16ff'\	.
8CC/J	.	.	16ee'\	.
.	.	.	16dd'\JJ	.
8C/L	.	.	(16cc/LL	.
.	.	.	16b-/	.
8CC/	.	.	16a/)	.
.	.	.	16g'/	.
8CC/J	.	.	16f'/	.
.	.	.	16e'/JJ	.
=86	=86	=86	=86	=86
4FF/	8a\	8f/ 8A/	8f'/L	.
.	8r	8r	8a'/	.
8r	8r	8r	8cc'/J	.
4r	4r	4r	8ff'\L	.
.	.	.	8aa'\	.
8r	16e\LL	16g/LL	8ccc'\J	.
.	16f\JJ	16a/JJ	.	.
=87	=87	=87	=87	=87
4r	16g\LL	16b-/LL	8ccc'\L	.
.	16f\	16a/	.	.
.	16a\	16cc/	8r	.
.	16g\	16b-/	.	.
8r	16f\	16a/	8ccc'\J	.
.	16e\JJ	16g/JJ	.	.
4r	16d/LL	16f/LL	8ccc'\L	.
.	16c/	16e/	.	.
.	16B-/	16d/	8r	.
.	16A/	16c/	.	.
8FF/	16G/	16B-/	16ccc'\L	.
.	16F/JJ	16A/JJ	16ccc'\JJ	.
=88	=88	=88	=88	=88
16D\LL	4.d\	4.f/	(8ccc\L	.
16E\	.	.	.	.
16F\	.	.	8bb-\)	.
16G\	.	.	.	.
16A\	.	.	8bb-'\J	.
16B-\JJ	.	.	.	.
8C\L	8c\	4.e/	(8bb-\L	.
8Bn\	8r	.	8gg#\	.
8c\J	8r	.	8aa\J)	.
=89	=89	=89	=89	=89
16BB-\LL	4.B-/	4.d/	(8aa\L	.
16C\	.	.	.	.
16D\	.	.	8ggn\)	.
16E\	.	.	.	.
16F\	.	.	8gg'\J	.
16G\JJ	.	.	.	.
8AA\L	8A/	8c/	(8gg\L	.
8G#\	8r	8r	8ee\	.
8A\J	8r	8r	8ff\J)	.
=90	=90	=90	=90	=90
[2.GG/	4f\	4.d/ 4.B/	(16ff\LL	.
.	.	.	16gg\	.
.	.	.	16aa\)	.
.	.	.	16bbn'\	.
.	8d\	.	16ccc'\	.
.	.	.	16ddd'\JJ	.
.	4.e\	4.e/ 4.c/	(16ee\LL	.
.	.	.	16ff\	.
.	.	.	16gg\)	.
.	.	.	16aa'\	.
.	.	.	16bb'\	.
.	.	.	16ccc'\JJ	.
=91	=91	=91	=91	=91
4.GG/_	4.c\	4f#/ 4A/	(16a\LL	.
.	.	.	16b\	.
.	.	.	16cc\)	.
.	.	.	16dd'\	.
.	.	8a/	16ee'\	.
.	.	.	16ff#'\JJ	.
8GG/]	8B/	8g/	8gg\L	.
8r	8r	8r	8r	.
8C/	8G/	8e/	(16gg\L	.
.	.	.	16ffn\JJ)	.
=92	=92	=92	=92	=92
8C/	8G/	8e/	(16ee\LL	.
.	.	.	16dd\	.
8r	8r	8r	16cc\)	.
.	.	.	16b'\	.
8C/	8G/	8e/	16a'\	.
.	.	.	16g'\JJ	.
8C/	8G/	8e/	(16f/LL	.
.	.	.	16e/	.
8r	8r	8r	16d/)	.
.	.	.	16c'/	.
16C/LL	16G/LL	16e/LL	16B'/	.
16C/JJ	16G/JJ	16e/JJ	16A'/JJ	.
=93	=93	=93	=93	=93
16D/LL	8G/	16f/LL	8G'/L	.
16E/	.	16g/	.	.
16D/	8r	16f/	8B'/	.
16C/	.	16e/	.	.
16BB/	8G/	16d/	8d'/J	.
16AA/JJ	.	16c/JJ	.	.
8GG/	16G\LL	8B/	8f'/	.
.	16B\	.	.	.
8r	16d\	8r	8r	.
.	16e\	.	.	.
8GG/	16d\	16B/LL	(16G/LL	.
.	16c\JJ	16c/JJ	16A/JJ)	.
=94	=94	=94	=94	=94
8GG/	8B/	8d/	(16B/LL	.
.	.	.	16c/	.
8r	8r	8r	16d/)	.
.	.	.	16e'/	.
8GG/	8B/	8d/	16f'/	.
.	.	.	16g'/JJ	.
8GG/	8B/	8d/	(16f\LL	.
.	.	.	16b\	.
8r	8r	8r	16dd\)	.
.	.	.	16ff'\	.
16GG/LL	16d\LL	16B/LL	16aa'\	.
16GG/JJ	16d\JJ	16B/JJ	16ff'\JJ	.
=95	=95	=95	=95	=95
4AA/	4c\	4c/	(8ff\L	.
.	.	.	8ee\)	.
8r	8r	8r	8bb'\J	.
4A\	4r	4r	8ccc'\L	.
.	.	.	8r	.
8r	8r	8r	16bb'\L	.
.	.	.	16ccc'\JJ	.
=96	=96	=96	=96	=96
2.r	8ee\L	8gg\L	(16bb\LL	.
.	.	.	16ccc\	.
.	8ee\J	8gg\J	16eee\	.
.	.	.	16ccc\)	.
.	8r	8r	16gg#'\	.
.	.	.	16aa'\JJ	.
.	8cc\L	8ee\L	(16gg#\LL	.
.	.	.	16aa\	.
.	8cc\J	8ee\J	16ccc\	.
.	.	.	16aa\)	.
.	8r	8r	16ee'\	.
.	.	.	16ff'\JJ	.
=97	=97	=97	=97	=97
2.r	8a\L	8cc\L	(16ee\LL	.
.	.	.	16ff\	.
.	8a\J	8cc\J	16aa\	.
.	.	.	16ff\)	.
.	8r	8r	16cc#'\	.
.	.	.	16dd'\JJ	.
.	8c#\L	4r	(16ff\LL	.
.	.	.	16ee\)	.
.	8d\	.	(16ggn\	.
.	.	.	16ff\)	.
.	8e\J	8r	(16aa\	.
.	.	.	16gg\JJ)	.
=98	=98	=98	=98	=98
4r	8f\	4r	(16bb-\LL	.
.	.	.	16aa\)	.
.	8r	.	(16gg\	.
.	.	.	16ff\)	.
8FF/	8f\	8r	(16ee\	.
.	.	.	16dd\JJ)	.
4GG/	8e\L	4r	(8ccn\L	.
.	8d\	.	8bn\)	.
8GG/	16c#\L	8ff\	8aa'\J	.
.	16d\JJ	.	.	.
=99	=99	=99	=99	=99
[2.GG/	16c#\LL	8ff\	8aa'\L	.
.	16d\	.	.	.
.	16f\	8r	8r	.
.	16d\	.	.	.
.	16c#\	8ff\	8aa'\J	.
.	16d\JJ	.	.	.
.	16c#\LL	8ff\	8aa'\L	.
.	16d\	.	.	.
.	16f\	8r	8r	.
.	16d\	.	.	.
.	16c#\	16ff\LL	16aa'\L	.
.	16d\JJ	16ff\JJ	16aa'\JJ	.
=100	=100	=100	=100	=100
4.GG/]	16d\LL	8ff\L	(8aa\L	.
.	16e\	.	.	.
.	16f\	8ee\	8gg\	.
.	16g\	.	.	.
.	16a\	8dd\J	8ff\J)	.
.	16b\JJ	.	.	.
8AA/L	8cc\	8cc/L	(8ee\L	.
8FF/	8r	8a/	8dd\	.
8FF/J	8d\	16a/L	8ff\J)	.
.	.	16f/JJ	.	.
=101	=101	=101	=101	=101
4.GG/	4c\	4e/	(4cc\	.
.	8B/	8f/	16ee\LL	.
.	.	.	16dd\JJ)	.
8C/	8c\	8e/	8cc'\L	.
8r	8r	8r	8r	.
8GG/	16C#/LL	8f/	8a'\J	mf
.	16D/JJ	.	.	.
=102	=102	=102	=102	=102
[2.GG/	16C#/LL	8f/	8a'/L	.
.	16D/	.	.	.
.	16F/	8r	8r	.
.	16D/	.	.	.
.	16C#/	8f/	8a'/J	.
.	16D/JJ	.	.	.
.	16C#/LL	8f/	8a'/L	.
.	16D/	.	.	.
.	16F/	8r	8r	.
.	16D/	.	.	.
.	16C#/	16f/LL	16a'/L	.
.	16D/JJ	16f/JJ	16a'/JJ	.
=103	=103	=103	=103	=103
4.GG/]	16D/LL	8f/L	(8a/L	.
.	16E/	.	.	.
.	16F/	8e/	8g/	.
.	16G/	.	.	.
.	16A/	8d/J	8f/J)	.
.	16B/JJ	.	.	.
8AA/L	8c\	8c/L	(8e/L	.
8FF/	8r	8d/	8d/	.
8FF/J	8A/	8d/J	8f/J)	.
=104	=104	=104	=104	=104
4.GG/	4E/	4c/	(4c/	.
.	8F/	8B/	16e/LL	.
.	.	.	16d/JJ)	.
8C/	8E/	8c/	8c'/L	.
8r	8r	8r	8r	.
8C/	8B-/	8e/	8cc'/J	p
=105	=105	=105	=105	=105
8C/	8B-/	8e/	8cc'\L	.
8r	8r	8r	8r	.
8C/	8A/	8f/	8cc'\J	.
8C/	8A/	8f/	8cc'\L	.
8r	8r	8r	8r	.
16C/LL	16F/LL	16a/LL	16cc'\L	.
16C/JJ	16F/JJ	16a/JJ	16cc'\JJ	.
=106	=106	=106	=106	=106
8C/L	16F/LL	8a/L	8cc'\L	.
.	16E/	.	.	.
8C/	16F/	8g/	8b'\	.
.	16G/	.	.	.
8C/J	16A/	8f/J	8a'\J	.
.	16B/JJ	.	.	.
8C/	8c\	8e/	8g'/L	.
8r	8r	8r	8r	.
8CC/	8G/	8B-/	8e'/J	.
=107	=107	=107	=107	=107
8CC/	8G/	8B-/	8e'/L	.
8r	8r	8r	8r	.
8CC/	8F/	8A/	8f'/J	.
8CC/	8F/	8A/	8f'/L	.
8r	8r	8r	8r	.
16CC/LL	16D/LL	16Bn/LL	16f'/L	.
16CC/JJ	16D/JJ	16B/JJ	16f'/JJ	.
=108	=108	=108	=108	=108
8CC/L	16D/LL	4.B/	8f'/L	.
.	16C#/	.	.	.
8CC/	16D/	.	8e'/	.
.	16E/	.	.	.
8CC/J	16F/	.	8d'/J	.
.	16G/JJ	.	.	.
8CC/	8E/	8c/	8c'/	.
8r	8r	8r	8r	.
8r	8r	8r	8r	.
=109	=109	=109	=109	=109
[4.CC/	4.F/	4.B/	(16d/LL	pp
.	.	.	16c#/	.
.	.	.	16d/)	.
.	.	.	16f'/	.
.	.	.	16e'/	.
.	.	.	16d'/JJ	.
8CC/]	8E/	8c/	8cn'/	.
8r	8r	8r	8r	.
8r	8r	8r	8r	.
=110	=110	=110	=110	=110
[4.CC/	16F/LL	4.d/	(4.B/	.
.	16E/	.	.	.
.	16F/	.	.	.
.	16A/	.	.	.
.	16G/	.	.	.
.	16F/JJ	.	.	.
8CC/]	8E/	8e/	8c/)	.
8r	8r	8r	8r	.
==|!	==|!	==|!	==|!	==|!
*-	*-	*-	*-	*-
!!!RWG: Appoggiaturas of spine 'Violino I' need manual editing in measures: 31, 31, 32, 33, 37
!!!RWG: Key is interpreted using the Humdrum key tool.
!!!GTL: 6 Quartetti ("Tost III")
!!!AFT: stage2
!!!END: 1994/11/13
!!!KEY: 2799591906
!!!EMD: Converted from MuseData to Humdrum Dec 16, 2000, by Andreas Kornstaedt using muse2kern.
!!!EMD: Manual editing by Craig Sapp, Nov 2001
